X: 21141
M: 2/4
L: 1/16
K: G
V: 1 name="1"
[|\
d2Bd g4 | d2Bd d4 | e2dc A4 | B2cd G2D2 |\
d2Bd g4 | d2Bc d4 | e2dc A4 | B2cd G4 H|]
[|\
g2gg g2a2 | a2b2b2g2 | g2e2e2c2 | c2de d2G2 |\
g2gg g2a2 | a2b2b2g2 | g2e2e2c2 | c2de d2"^D.C."z2 |]
[|\


